X:1
T:Who is Silvia?
T:William Linley (1771-1835)
T:William Shakespeare (1564-1616) "Two Gentlemen of Verona" Act IV, Scene 2.
T:Who is Silvia?
T:Copyright © 
T:Copyright © 
T:Copyright © 
T:Copyright © 
C:William Linley (1771-1835)
Z:William Shakespeare (1564-1616) "Two
Z:Gentlemen of Verona" Act IV, Scene 2.
Z:Copyright ©
%%score 1 { ( 2 3 6 ) | ( 4 5 ) }
L:1/8
M:4/4
K:G
V:1 treble nm="Voice" snm="Voice"
V:2 treble nm="Piano" snm="Pno."
V:3 treble 
V:6 treble 
V:4 bass 
V:5 bass 
V:1
 z8 | z8 | z8 | z8 | z8 | z8 | z8 | z8 |: d<B B<G G2 D2 | E2 F2 G3 A | B3 c d2 e2 | G2 F2 z4 | %12
w: ||||||||Who _ is _ Sil- via?|what is she? that|all the swains com-|mend her.|
 d2 (cB) c2 e2 | (ed) (cB) c2 z2 | c2 (BA) B2 d2 | dc BA B2 G2 | e3 d cB AG | F/G/A D2 d3 c | %18
w: Ho- ly _ fair and|wise _ is _ she,|ho- ly _ fair and|wise _ is _ she. The|heav'ns such grace _ did _|lend _ _ her, that she|
 B<G c<A D2 TF2 | G2 z G ^c3 c | !fermata!d8 |{cd} e3 d cB AG |{GA} B2 TA2 G4 | z8 | z8 || %25
w: might _ ad- * mir- ed|be, ad- mi- red|be.|* she might _ ad- *|* red be.|||
 B3 e (dc) (BA) | G2 TF2 E2 z E | c3 B (AG) (FE) | (^D/E/F) B,2 z4 | B3 A (AG) (FE) | B3 A G2 z G | %31
w: Is she kind _ as _|she is fair? for|beau- ty lives _ with _|kind- * * ness.|Love doth to _ her _|eyes re- pair to|
 d3 c (cB) (AG) | d2 D2 z4 | A2 AA B3 B | ^c3 c d4 | e2 GG F2 z B | (AG) (FE) D4 :: c3 G A2 =f2 | %38
w: help him of _ his _|blind- ness,|and be- ing helped, in-|ha- bits there,|and be- ing helped, in-|ha- * bits _ there.|Then to Syl- via|
 =f<d c<TB c3 d | e3 d c3 B | A2 (G=F) ED z2 | G3 =f (e<c) (B<c) | G2 (AB) c3 G | _e3 d c2 F2 | %44
w: let _ us _ sing, that|Sil- via, Sil- via|is ex- * cel- ling.|She ex- cels _ each _|mor- tal _ thing up-|on the dull earth|
 A G2 z z4 | G2 TAB c2 G2 | (=FE) (DC) G2 z2 | A3 B (cd) (e=f) | g2 G2 !fermata!c4 :| %49
w: dwell- ing.|To her _ let us|gar- * lands _ bring,|to her let _ us _|gar- lands bring.|
V:2
"^With spirit but not too fast" d<B B<G G2 D2 | E2 F2 G3 A | B3 c d2 e2 | (3fga (3gfe (3ded (3cBA | %4
 d3 =F E2 (3gec | d3 =f (f2 e2) | d3 c B<G c<A | D2 F2 G4 |: d<B B<G G2 D2 | E2 F2 G3 A | %10
 B3 c d2 e2 | G2 F2 f/g/a d2 | d2 cB c2 e2 | edcB c/d/e A2 | c2 BA B2 d2 | dcBA B/c/d G2 | %16
 e3 d cBAG | F/G/A D2 d3 c | B<G c<A D2 F2 | G2 z2 [EGA^c]4 | !fermata![FAd]8 | e3 d cBAG | %22
 B2 TA2 G4 | d3 c' b<g g<d | B2 A2 !fermata!G4 || B3 e dcBA | [EG]2 [^DF]2 E2 E2 | c3 B AGFE | %28
 ^D/E/F B,2 ^d/e/f B2 | B3 A AGFE | B3 A G/A/B e/f/g | d3 c cBAG | dAFD B/c/d D2 | A,AFD B,BGE | %34
 ^C^cAF DdBG | Ee^cG F2 B2 | AGFE D4 :: !/![CGc]4 A4- | A2 G=F E2 dG | e3 d c3 B | A2 G=F EDED | %41
 G3 =f (e<c) (B<c) | G2 AB c3 G | _e3 d c2 F2 | TAGTAF B/c/d G2 | G2 AB c2 G2 | =FEDC [DG]2 z2 | %47
 [CEA]3 [DGB] cde=f | g2 G2 !fermata![EGc]4 :| %49
V:3
 x4 D4 | D4 D2 D2 | D4 G4 | A8 | x8 | G8 | F4 D2 E2 | DCB,A, G,4 |: D2 D2 D2 B,2 | D4 D2 D2 | %10
 DGFE D G2 G | B,2 A,2 d/e/f F2 | B2 A^G A2 c2 | cBA^G A/B/c C2 | A2 =GF G2 B2 | BAGF G/A/B B,2 | %16
 E2 F2 G2 ^C2 | x2 F,2 A2 F2 | D2 E2 DCB,A, | B,2 x2 x4 | x8 | [Gc]2 AB G2 E2 | D3 C B,4 | x8 | %24
 G2 F2 !fermata!G4 || x8 | B,3 A, G,2 E2- | E2 ^D2 E2 [^A,^C]2 | B,/^C/^D B,2 B/^c/=d D2 | B,8- | %30
 B,2 ^C^D E2 x2 | D8 | x8 | x8 | x8 | z4 D2 D2 | FED^C D4 :: x4 G2 =FE | [B,D]=F ED C2 G2 | %39
 G3 =F E3 D | C=F ED CB,CB, | x8 | x8 | x8 | x8 | x8 | z4 B,2 x2 | x4 G4- | G2 G>=F !fermata!x4 :| %49
V:4
 B,<G, G,<D, B,,2 G,,2 | C,2 D,2 E,2 F,2 | G,2 A,2 B,2 C2 | [D,F,]2 [E,G,]2 [F,A,]2 [D,F,]2 | G,8 | %5
 B,,2 G,,2 C,2 C,,2 | D,2 F,2 G,2 C,2 | D,2 D,,2 G,,4 |: B,<G, G,<D, B,,2 G,,2 | C,2 D,2 E,2 F,2 | %10
 G,,2 A,,2 B,,2 C,2 | D,2 D,,2 D,2 z2 | E,2 z2 A,,2 z2 | E,2 z2 A,,2 z2 | D,2 z2 G,,2 z2 | %15
 D,2 G,,2 z4 | C,2 D,2 E,2 A,,2 | D,2 D,,2 F,2 D,2 | G,2 C,2 D,2 D,,2 | E,,2 z2 A,,,4 | %20
 !fermata![D,,F,,A,,D,]8 | E,2 F,G, E,2 C,2 | D,2 D,,2 G,,2 G,2 | F,2 D,2 G,2 B,,2 | %24
 D,2 D,,2 !fermata!G,,4 || [G,,B,,]2 E,2 [A,,C,]2 F,2 | B,,2 B,,,2 E,,4 | A,,2 B,,2 C,2 F,,2 | %28
 B,,2 B,,,2 B,,2 z2 | [^D,F,]2 B,,2 [E,G,]2 B,,2 | [^D,F,]2 B,,2 [E,G,]2 B,,2 | %31
 [F,A,]2 =D,2 [G,B,]2 D,2 | [F,A,]2 D,2 [G,B,]2 D,2 | F,,2 D,2 G,,2 E,2 | A,,2 F,2 B,,2 G,2 | %35
 ^C,2 A,2 D,2 G,,2 | A,,2 A,,2 D,4 :: !/!E,4 !/!=F,4 | G,G,G,,G,, A,,A, B,2 | C2 G,2 A,2 E,2 | %40
 =F,2 C,2 G,4 | G,,B,,D,G, G,,C,E,C, | G,,B,,D,=F, G,,C,_E,C, | G,,C,_E,C, G,,C,E,C, | %44
 G,,B,,D,B,, G,,2 G,2- |"^Source: \"Shakspeare's Dramatic Songs\" 1816" G,2 A,B, C2 G,2 | %46
 =F,E,D,C, G,,2 G,2- | G,2 =F,2 E,2 C,2 | G,,4 !fermata!C,4 :| %49
V:5
 x8 | x8 | x8 | x8 | B,,2 G,,2 C,2 G,,2 | x8 | x8 | x8 |: x8 | x8 | x8 | x8 | x8 | x8 | x8 | x8 | %16
 x8 | x8 | x8 | x8 | x8 | x8 | x8 | x8 | x8 || x8 | x8 | x8 | x8 | x8 | x8 | x8 | x8 | x8 | x8 | %35
 x8 | x8 :: x8 | x8 | x8 | x8 | x8 | x8 | x8 | x8 | x8 | x8 | x8 | x8 :| %49
V:6
 x8 | x8 | x8 | x8 | x8 | x8 | x8 | x8 |: x8 | x8 | x8 | x8 | x8 | x8 | x8 | x8 | x8 | x8 | x8 | %19
 x8 | x8 | x8 | x8 | x8 | x8 || x8 | x8 | F4 x4 | x8 | x8 | x8 | x8 | x8 | x8 | x8 | x8 | x8 :: %37
 x8 | x8 | x8 | x8 | x8 | x8 | x8 | x8 | x8 | x8 | x8 | x8 :| %49

